X:13
T:Lads of Leith
M:6/8
L:1/8
K:GMin
B/c/|d>fd Tc2B  |A>BG T^F2D |GAB   cA^F|G3 G2:|
B/c/|dBb  Ta2g  |fdg   f3   |B>cB  fdg |cdB TA>GF|BAB cBc|
[1               d2G  T^F>=ED|GAB   cA^F|G3 G2:|\
[2               d2g  T^f>=ed|gab   ag^f|g3 g2|]

% @@@@@@@@@@@@@@@@@@@@@@@@@@@@@@@@@@

%% 14. ===============================================================================

% +&W&elsh &F&usileers.+
%
% *RIGHT hands across, and sett; the Left Ditto.  *First Man sett to 2d Woman, first
% Woman the same to 2d Man, and turn him round.  *FIRST Pair sett and cast off one
% Pair, sett and cast off another; cross up one Pair and sett, cross up another and
% sett.  *Cross over, figure in, sett, and go Right and Left.

% @@@@@@@@@@@@@@@@@@@@@@@@@@@@@@@@@@

